Pods/ProtonCore-UIFoundations/libraries/UIFoundations/Sources/Assets.xcassets/Images/IconSet/ic-envelope.imageset/ic-envelope.svg

<svg width="24" height="24" viewBox="0 0 24 24" fill="none" xmlns="http://www.w3.org/2000/svg">
<path fill-rule="evenodd" clip-rule="evenodd" d="M3 9.32596V16.2C3 17.0648 3.00117 17.6232 3.03589 18.0482C3.06918 18.4557 3.1257 18.6068 3.16349 18.681C3.3073 18.9632 3.53677 19.1927 3.81901 19.3365C3.89318 19.3743 4.04426 19.4308 4.45175 19.4641C4.87676 19.4988 5.43517 19.5 6.3 19.5H17.7C18.5648 19.5 19.1232 19.4988 19.5482 19.4641C19.9557 19.4308 20.1068 19.3743 20.181 19.3365C20.4632 19.1927 20.6927 18.9632 20.8365 18.681C20.8743 18.6068 20.9308 18.4557 20.9641 18.0482C20.9988 17.6232 21 17.0648 21 16.2V9.32596L13.1792 14.1387C12.4561 14.5838 11.5439 14.5838 10.8208 14.1387L3 9.32596ZM20.9734 7.58105L12.3931 12.8613C12.152 13.0096 11.848 13.0096 11.6069 12.8613L3.0266 7.58105C3.02939 7.53656 3.03248 7.49351 3.03589 7.45175C3.06918 7.04426 3.1257 6.89318 3.16349 6.81901C3.3073 6.53677 3.53677 6.3073 3.81901 6.16349C3.89318 6.1257 4.04426 6.06918 4.45175 6.03589C4.87676 6.00117 5.43517 6 6.3 6H17.7C18.5648 6 19.1232 6.00117 19.5482 6.03589C19.9557 6.06918 20.1068 6.1257 20.181 6.16349C20.4632 6.3073 20.6927 6.53677 20.8365 6.81901C20.8743 6.89318 20.9308 7.04426 20.9641 7.45175C20.9675 7.49351 20.9706 7.53656 20.9734 7.58105ZM1.82698 6.13803C1.5 6.77976 1.5 7.61984 1.5 9.3V16.2C1.5 17.8802 1.5 18.7202 1.82698 19.362C2.1146 19.9265 2.57354 20.3854 3.13803 20.673C3.77976 21 4.61984 21 6.3 21H17.7C19.3802 21 20.2202 21 20.862 20.673C21.4265 20.3854 21.8854 19.9265 22.173 19.362C22.5 18.7202 22.5 17.8802 22.5 16.2V9.3C22.5 7.61984 22.5 6.77976 22.173 6.13803C21.8854 5.57354 21.4265 5.1146 20.862 4.82698C20.2202 4.5 19.3802 4.5 17.7 4.5H6.3C4.61984 4.5 3.77976 4.5 3.13803 4.82698C2.57354 5.1146 2.1146 5.57354 1.82698 6.13803Z" fill="#0C0C14"/>
</svg>

<svg xmlns="http://www.w3.org/2000/svg" width="24" height="24" viewBox="0 0 24 24">
  <g class="ic-envelope">
    <path fill-rule="evenodd" d="M3 9.326V16.2c0 .865.001 1.423.036 1.848.033.408.09.559.127.633a1.5 1.5 0 0 0 .656.655c.074.038.225.095.633.128.425.035.983.036 1.848.036h11.4c.865 0 1.423-.001 1.848-.036.408-.033.559-.09.633-.127a1.5 1.5 0 0 0 .655-.656c.038-.074.095-.225.128-.633.035-.425.036-.983.036-1.848V9.326l-7.82 4.813a2.25 2.25 0 0 1-2.36 0L3 9.326Zm17.973-1.745-8.58 5.28a.75.75 0 0 1-.786 0l-8.58-5.28a6.88 6.88 0 0 1 .009-.13c.033-.407.09-.558.127-.632a1.5 1.5 0 0 1 .656-.656c.074-.037.225-.094.633-.127C4.877 6 5.435 6 6.3 6h11.4c.865 0 1.423.001 1.848.036.408.033.559.09.633.127a1.5 1.5 0 0 1 .655.656c.038.074.095.225.128.633l.01.13ZM1.827 6.138C1.5 6.78 1.5 7.62 1.5 9.3v6.9c0 1.68 0 2.52.327 3.162a3 3 0 0 0 1.311 1.311C3.78 21 4.62 21 6.3 21h11.4c1.68 0 2.52 0 3.162-.327a3 3 0 0 0 1.311-1.311c.327-.642.327-1.482.327-3.162V9.3c0-1.68 0-2.52-.327-3.162a3 3 0 0 0-1.311-1.311C20.22 4.5 19.38 4.5 17.7 4.5H6.3c-1.68 0-2.52 0-3.162.327a3 3 0 0 0-1.311 1.311Z" class="Icon"/>
  </g>
</svg>
